X: 44
M:6/8
L:1/8
K:G
vG(MBA) G2B|def geB|A(MBA) G2B|ABA AFD|
kvd3 dcB|def gdB|kd3 dcA|ABA AFD|
kd3 dcB|def gdB|"4"ecA dBG|FDF G3:|


